src/images/mahasiswa/mahasiswa-male-3.svg

<svg width="120" height="120" viewBox="0 0 120 120" fill="none" xmlns="http://www.w3.org/2000/svg">
<path d="M120 59.9994C120 93.1366 93.1369 120 59.9995 120C26.863 120 0 93.1366 0 59.9994C0 26.8631 26.863 7.62939e-06 59.9995 7.62939e-06C93.1369 7.62939e-06 120 26.8631 120 59.9994Z" fill="#635CB3"/>
<path d="M103.361 89.2111C100.664 85.5898 87.2529 80.6521 80.2878 78.0666C77.916 77.1785 76.653 76.7047 76.1053 76.4002C75.11 75.5919 71.9391 71.3007 71.9391 71.3007H71.9115H71.7214V67.5342C73.9174 65.1503 75.5749 62.5138 76.5406 60.514C77.212 59.1273 77.8782 54.3878 77.8782 54.3878C82.0945 52.4841 82.6034 45.7622 82.7792 42.0007C82.8681 40.1 81.9228 39.9906 80.8989 40.4065C80.9398 40.0519 80.9602 39.7168 80.9909 39.3714C82.4818 35.5189 83.5517 31.5305 83.6467 27.4195C83.7929 21.1207 81.2515 14.4366 75.9111 11.093C70.9448 7.98343 64.6613 8.24708 58.8141 8.61495C55.5329 8.82137 52.1566 9.05232 49.1986 10.4881C46.2411 11.9228 44.1683 15.0814 44.3255 18.3647C42.904 16.6663 39.9997 17.0281 38.4146 18.5752C36.8295 20.1223 36.273 22.4266 35.9765 24.6206C35.4867 28.2493 35.523 32.0006 36.5983 35.5005C37.1301 37.2305 37.9355 38.8962 38.991 40.3667C38.0106 40.0049 37.1348 40.1684 37.2202 42.0007C37.3959 45.7571 37.9049 52.4667 42.1069 54.3797C42.4789 57.2276 42.9128 59.4666 43.4178 60.514C44.3901 62.5271 46.0623 65.183 48.2785 67.5781V71.3007H48.0881H48.0609C48.0609 71.3007 44.8891 75.5919 43.8944 76.4002C43.773 76.4984 43.3288 76.6923 42.6382 76.963C41.871 77.2635 40.8479 77.6428 39.6528 78.089C32.6718 80.6808 19.3283 85.5998 16.6382 89.2111C15.1554 91.203 13.9626 93.9999 12.9946 97.2655C23.9858 111.11 40.9497 119.998 59.9995 119.998C79.0503 119.998 96.0135 111.11 107.005 97.2655C106.037 93.9999 104.845 91.203 103.361 89.2111Z" fill="#2E2C63"/>
</svg>

<?xml version="1.0" encoding="UTF-8" standalone="no"?>
<svg width="120" xmlns="http://www.w3.org/2000/svg" viewBox="0 0 120 120" height="120">
 <path d="m120 59.999c0 33.138-26.863 60.001-60 60.001s-60-26.863-60-60.001c0-33.136 26.863-59.999 60-59.999 33.137 0.0000076294 60 26.863 60 59.999z" fill="#635CB3"/>
 <path d="m103.36 89.211c-2.7-3.621-16.107-8.559-23.072-11.144-2.372-0.889-3.635-1.362-4.183-1.667-0.995-0.808-4.166-5.099-4.166-5.099h-0.218v-3.767c2.196-2.384 3.854-5.02 4.82-7.02 0.671-1.387 1.337-6.126 1.337-6.126 4.216-1.904 4.725-8.626 4.901-12.387 0.089-1.901-0.856-2.01-1.88-1.595 0.041-0.354 0.061-0.689 0.092-1.035 1.491-3.852 2.561-7.841 2.656-11.951 0.146-6.299-2.395-12.983-7.736-16.327-4.966-3.1096-11.25-2.8459-17.097-2.478-3.281 0.2064-6.657 0.4373-9.615 1.873-2.958 1.435-5.031 4.593-4.873 7.877-1.422-1.699-4.326-1.337-5.911 0.21s-2.142 3.852-2.439 6.046c-0.489 3.628-0.453 7.38 0.622 10.879 0.532 1.73 1.338 3.396 2.393 4.867-0.98-0.362-1.856-0.199-1.771 1.634 0.176 3.756 0.685 10.466 4.887 12.379 0.372 2.848 0.806 5.087 1.311 6.134 0.972 2.013 2.644 4.669 4.86 7.064v3.723h-0.217s-3.172 4.291-4.167 5.099c-0.121 0.098-0.565 0.292-1.256 0.563-0.767 0.301-1.79 0.68-2.985 1.126-6.981 2.592-20.325 7.511-23.015 11.122-1.483 1.992-2.675 4.789-3.643 8.055 10.991 13.844 27.955 22.734 47.005 22.734s36.014-8.89 47-22.734c-0.96-3.266-2.16-6.063-3.64-8.055z" fill="#2E2C63"/>
</svg>
